src/symbolic/status/folder-open-symbolic.svg

<svg xmlns="http://www.w3.org/2000/svg" width="16" height="16"><path d="M14 1s1 0 1 1v3c0-1-1-1-1-1H9L7 6H2S1 6 1 7V4c0-1 1-1 1-1h5l2-2z" opacity=".3" fill="#444"/><path d="M14 5s1 0 1 1v7s0 1-1 1H2s-1 0-1-1V8c0-1 1-1 1-1h5l2-2z" fill="#444"/></svg>

<?xml version="1.0" encoding="UTF-8" standalone="no"?>
<svg
   xmlns:dc="http://purl.org/dc/elements/1.1/"
   xmlns:cc="http://creativecommons.org/ns#"
   xmlns:rdf="http://www.w3.org/1999/02/22-rdf-syntax-ns#"
   xmlns:svg="http://www.w3.org/2000/svg"
   xmlns="http://www.w3.org/2000/svg"
   xmlns:sodipodi="http://sodipodi.sourceforge.net/DTD/sodipodi-0.dtd"
   xmlns:inkscape="http://www.inkscape.org/namespaces/inkscape"
   width="16"
   height="16"
   version="1.1"
   id="svg6"
   sodipodi:docname="folder-open-symbolic.svg"
   inkscape:version="0.92.4 (5da689c313, 2019-01-14)">
  <metadata
     id="metadata12">
    <rdf:RDF>
      <cc:Work
         rdf:about="">
        <dc:format>image/svg+xml</dc:format>
        <dc:type
           rdf:resource="http://purl.org/dc/dcmitype/StillImage" />
      </cc:Work>
    </rdf:RDF>
  </metadata>
  <defs
     id="defs10" />
  <sodipodi:namedview
     pagecolor="#ffffff"
     bordercolor="#666666"
     borderopacity="1"
     objecttolerance="10"
     gridtolerance="10"
     guidetolerance="10"
     inkscape:pageopacity="0"
     inkscape:pageshadow="2"
     inkscape:window-width="1366"
     inkscape:window-height="712"
     id="namedview8"
     showgrid="false"
     inkscape:zoom="14.75"
     inkscape:cx="-0.44067797"
     inkscape:cy="8"
     inkscape:window-x="0"
     inkscape:window-y="30"
     inkscape:window-maximized="1"
     inkscape:current-layer="svg6" />
  <path
     style="opacity:0.3;fill:#444444"
     d="m 14,1 c 0,0 1,0 1,1 V 5 C 15,4 14,4 14,4 H 9 L 7,6 H 2 C 2,6 1,6 1,7 V 4 C 1,3 2,3 2,3 H 7 L 9,1 Z"
     id="path2"
     inkscape:connector-curvature="0" />
  <path
     style="fill:#444444"
     d="m 14,5 c 0,0 1,0 1,1 v 7 c 0,0 0,1 -1,1 H 2 C 2,14 1,14 1,13 V 8 C 1,7 2,7 2,7 H 7 L 9,5 Z"
     id="path4"
     inkscape:connector-curvature="0" />
</svg>
